packages/ui/assets/svg/btc.svg

<svg class="icon-size" viewBox="0 0 30 30" fill="none" xmlns="http://www.w3.org/2000/svg">
<path d="M2.87775 15.387C2.67075 15.387 2.50275 15.2318 2.50275 15.0255V15C2.50275 13.6897 2.7045 12.399 3.10275 11.1637C3.1665 10.9665 3.378 10.86 3.5745 10.9215C3.77175 10.9853 3.87975 11.1967 3.81675 11.3932C3.4425 12.5542 3.25275 13.7677 3.25275 15C3.25275 15.2063 3.0855 15.387 2.87775 15.387ZM18.6405 26.172C17.472 26.5515 16.2517 26.7457 15.0135 26.7472C14.8065 26.7472 14.6385 26.9167 14.6385 27.1222C14.6385 27.3277 14.8065 27.4972 15.0135 27.4972C16.3305 27.4957 17.6302 27.2902 18.873 26.886C19.0702 26.823 19.1768 26.6107 19.1122 26.4135C19.0485 26.217 18.8363 26.1082 18.6405 26.172ZM3.831 18.651C3.76725 18.4538 3.558 18.3465 3.3585 18.411C3.162 18.4748 3.054 18.687 3.1185 18.8835C3.525 20.1285 4.12425 21.2992 4.9005 22.3627C4.974 22.464 5.088 22.5165 5.2035 22.5165C5.28 22.5165 5.358 22.494 5.424 22.4437C5.59125 22.3215 5.628 22.0868 5.50575 21.9202C4.7775 20.9212 4.2135 19.821 3.831 18.651ZM18.5955 3.813C19.7677 4.1895 20.8702 4.7475 21.873 5.472C21.9397 5.52 22.0162 5.54325 22.092 5.54325C22.2083 5.54325 22.323 5.48925 22.3958 5.388C22.5173 5.22 22.479 4.98525 22.3125 4.8645C21.246 4.0935 20.073 3.4995 18.825 3.099C18.6278 3.03675 18.4178 3.14475 18.3533 3.34125C18.2903 3.5385 18.3983 3.75 18.5955 3.813ZM5.175 8.2725C5.29125 8.2725 5.406 8.2185 5.47875 8.11725C6.2025 7.1175 7.074 6.2415 8.07075 5.5125C8.238 5.39025 8.274 5.1555 8.15175 4.98825C8.03025 4.821 7.7955 4.785 7.6275 4.90725C6.56775 5.682 5.64075 6.61425 4.87125 7.677C4.74975 7.845 4.78725 8.079 4.95525 8.2005C5.022 8.25 5.09925 8.2725 5.175 8.2725ZM11.2215 3.8535C11.2598 3.8535 11.2995 3.8475 11.3385 3.83475C12.5055 3.45225 13.7257 3.2565 14.9647 3.2535C15.171 3.25275 15.3397 3.08475 15.339 2.87775C15.3383 2.6715 15.1695 2.5035 14.964 2.5035H14.9633C13.6455 2.50725 12.3472 2.71575 11.1053 3.12225C10.9088 3.18675 10.8015 3.39825 10.866 3.5955C10.917 3.753 11.0632 3.8535 11.2215 3.8535ZM11.382 26.1795C10.2105 25.8 9.10875 25.2405 8.1075 24.5138C7.94025 24.3908 7.70475 24.4297 7.584 24.5955C7.4625 24.765 7.5 24.999 7.66725 25.1205C8.73225 25.8923 9.9045 26.4885 11.151 26.8913C11.1892 26.9047 11.2283 26.9085 11.2665 26.9085C11.4248 26.9085 11.5717 26.8073 11.6235 26.649C11.6873 26.4548 11.5792 26.2432 11.382 26.1795ZM24.507 21.9015C23.781 22.899 22.9072 23.7735 21.9097 24.5002C21.7425 24.6225 21.7065 24.8573 21.828 25.0245C21.9023 25.125 22.0155 25.179 22.131 25.179C22.2075 25.179 22.2847 25.1558 22.3515 25.107C23.4128 24.3338 24.3413 23.4037 25.1138 22.341C25.2367 22.1723 25.1985 21.939 25.0327 21.8175C24.8625 21.696 24.6285 21.7342 24.507 21.9015ZM27.1222 14.601C26.9152 14.601 26.7472 14.7922 26.7472 15C26.7472 16.239 26.5553 17.4608 26.175 18.6292C26.112 18.8265 26.22 19.0373 26.4165 19.1017C26.4548 19.1152 26.4937 19.1198 26.5305 19.1198C26.6888 19.1198 26.8358 19.0193 26.8883 18.8595C27.2925 17.6175 27.4972 16.317 27.4972 15V14.952C27.4972 14.745 27.3292 14.601 27.1222 14.601ZM26.1615 11.3272C26.2132 11.4847 26.3603 11.5852 26.5185 11.5852C26.5583 11.5852 26.5965 11.5793 26.6355 11.5665C26.832 11.502 26.9385 11.2898 26.874 11.0933C26.4645 9.84825 25.8615 8.679 25.0837 7.6185C24.9608 7.45125 24.7253 7.41525 24.5603 7.53825C24.3938 7.66125 24.357 7.89525 24.4807 8.0625C25.2112 9.0585 25.7768 10.1572 26.1615 11.3272ZM30 15C30 23.2703 23.2703 30 15 30C6.729 30 0 23.2703 0 15C0 6.729 6.729 0 15 0C23.2703 0 30 6.729 30 15ZM28.5 15C28.5 7.55625 22.4438 1.5 15 1.5C7.55625 1.5 1.5 7.55625 1.5 15C1.5 22.4438 7.55625 28.5 15 28.5C22.4438 28.5 28.5 22.4438 28.5 15ZM16.2645 15.6135C16.014 15.5183 15.6315 15.4703 15.1185 15.4703H13.9462V17.4307C13.9507 17.7083 13.9613 17.8702 13.9785 17.9175C14.0003 17.9767 14.0355 18.0203 14.0858 18.0435C14.1353 18.066 14.2702 18.0802 14.49 18.0802H15.15C15.534 18.0802 15.8527 18.0435 16.104 17.9708C16.3575 17.9002 16.5728 17.7518 16.7482 17.526C16.9237 17.3002 17.0138 17.031 17.0138 16.7145C17.0138 16.4467 16.9508 16.2195 16.8263 16.032C16.7025 15.8497 16.515 15.7088 16.2645 15.6135ZM25.827 15C25.827 20.9797 20.9797 25.827 15 25.827C9.021 25.827 4.17375 20.9797 4.17375 15C4.17375 9.021 9.021 4.17375 15 4.17375C20.9797 4.17375 25.827 9.021 25.827 15ZM19.3665 16.9567C19.3665 16.5547 19.2712 16.191 19.0807 15.864C18.8902 15.5355 18.6308 15.2828 18.309 15.099C18.0833 14.9685 17.76 14.8492 17.3348 14.742C17.73 14.6077 18.048 14.4382 18.288 14.232C18.5288 14.0265 18.7132 13.7895 18.8415 13.5217C18.969 13.2532 19.0328 12.9698 19.0328 12.6713C19.0328 12.2603 18.912 11.8822 18.672 11.538C18.429 11.1945 18.0833 10.9298 17.6332 10.7467C17.4578 10.6755 17.2493 10.6215 17.025 10.578V8.97975H15.4913V10.47H14.5057V8.97975H12.972V10.47H10.6327V11.7225H10.9905C11.2283 11.7225 11.3895 11.745 11.4742 11.7878C11.559 11.8305 11.6182 11.8897 11.6528 11.9625C11.688 12.036 11.7052 12.2078 11.7052 12.4755V17.526C11.7052 17.7915 11.6887 17.9603 11.6528 18.036C11.6182 18.1125 11.559 18.171 11.4742 18.2108C11.3895 18.252 11.229 18.273 10.9905 18.273H10.6327V19.5255H12.972V21.015H14.5057V19.5255H15.378C15.4185 19.5255 15.4552 19.5247 15.492 19.5247V21.015H17.0257V19.3965C17.283 19.347 17.5103 19.2847 17.7015 19.206C18.2302 18.9953 18.639 18.6877 18.9307 18.2828C19.221 17.8808 19.3665 17.4375 19.3665 16.9567ZM16.0905 14.0093C16.3403 13.923 16.5262 13.7918 16.6522 13.6185C16.7775 13.4438 16.8397 13.2405 16.8397 13.011C16.8397 12.7732 16.7805 12.57 16.662 12.4012C16.5427 12.2325 16.3695 12.1125 16.146 12.0413C15.9202 11.9693 15.5175 11.9333 14.9393 11.9333H13.9462V14.1405H14.9393C15.4583 14.1398 15.8415 14.0963 16.0905 14.0093Z" fill="#FFB800"/>
</svg>

<svg class="icon-size" viewBox="0 0 30 30" fill="none" xmlns="http://www.w3.org/2000/svg"><path d="M2.878 15.387a.364.364 0 0 1-.375-.362V15c0-1.31.201-2.601.6-3.836a.376.376 0 0 1 .714.23A11.738 11.738 0 0 0 3.253 15a.386.386 0 0 1-.375.387ZM18.64 26.172a11.77 11.77 0 0 1-3.627.575.376.376 0 0 0-.374.375c0 .206.168.375.375.375a12.51 12.51 0 0 0 3.859-.611.375.375 0 0 0-.233-.714ZM3.832 18.651a.375.375 0 1 0-.712.233A12.445 12.445 0 0 0 4.9 22.363a.372.372 0 0 0 .524.08.374.374 0 0 0 .082-.523 11.733 11.733 0 0 1-1.675-3.269ZM18.596 3.813c1.172.376 2.274.934 3.277 1.659a.374.374 0 0 0 .523-.084.376.376 0 0 0-.084-.524A12.424 12.424 0 0 0 18.825 3.1a.375.375 0 0 0-.23.714ZM5.175 8.273a.373.373 0 0 0 .304-.156c.723-1 1.595-1.876 2.592-2.605a.375.375 0 1 0-.443-.605 12.524 12.524 0 0 0-2.757 2.77.375.375 0 0 0 .304.596Zm6.047-4.42a.377.377 0 0 0 .117-.018 11.716 11.716 0 0 1 3.626-.582.376.376 0 0 0-.001-.75 12.498 12.498 0 0 0-3.859.62.375.375 0 0 0 .117.73Zm.16 22.326a11.708 11.708 0 0 1-3.274-1.665.375.375 0 1 0-.44.607 12.458 12.458 0 0 0 3.483 1.77.376.376 0 0 0 .473-.242.373.373 0 0 0-.242-.47Zm13.125-4.277c-.726.997-1.6 1.871-2.597 2.598a.376.376 0 0 0 .442.607 12.533 12.533 0 0 0 2.762-2.766.375.375 0 1 0-.607-.44Zm2.615-7.301c-.207 0-.375.191-.375.399 0 1.239-.192 2.46-.572 3.63a.377.377 0 0 0 .355.49c.159 0 .306-.1.358-.26a12.46 12.46 0 0 0 .61-3.86v-.048c0-.207-.169-.351-.376-.351Zm-.96-3.274a.376.376 0 0 0 .474.24.375.375 0 0 0 .238-.474 12.441 12.441 0 0 0-1.79-3.474.374.374 0 1 0-.603.444c.73.995 1.296 2.094 1.68 3.264ZM30 15c0 8.27-6.73 15-15 15-8.271 0-15-6.73-15-15C0 6.729 6.729 0 15 0c8.27 0 15 6.729 15 15Zm-1.5 0c0-7.444-6.056-13.5-13.5-13.5S1.5 7.556 1.5 15 7.556 28.5 15 28.5 28.5 22.444 28.5 15Zm-12.235.614c-.251-.096-.633-.144-1.147-.144h-1.172v1.96c.005.278.015.44.033.488a.21.21 0 0 0 .107.126c.05.022.184.036.404.036h.66c.384 0 .703-.036.954-.11.254-.07.469-.218.644-.444.176-.226.266-.495.266-.811 0-.268-.063-.495-.188-.683a1.149 1.149 0 0 0-.561-.418ZM25.827 15c0 5.98-4.847 10.827-10.827 10.827C9.021 25.827 4.174 20.98 4.174 15 4.174 9.021 9.02 4.174 15 4.174c5.98 0 10.827 4.847 10.827 10.826Zm-6.46 1.957a2.13 2.13 0 0 0-.286-1.093 2.053 2.053 0 0 0-.772-.765c-.226-.13-.549-.25-.974-.357.395-.134.713-.304.953-.51.24-.205.425-.442.553-.71.128-.269.192-.552.192-.85 0-.412-.121-.79-.361-1.134-.243-.344-.589-.608-1.039-.791a3.34 3.34 0 0 0-.608-.169V8.98h-1.534v1.49h-.985V8.98h-1.534v1.49h-2.34v1.252h.359c.237 0 .399.023.483.066a.377.377 0 0 1 .179.175c.035.073.052.245.052.513v5.05c0 .265-.016.434-.052.51a.35.35 0 0 1-.179.175c-.085.041-.245.062-.483.062h-.358v1.253h2.339v1.489h1.534v-1.49h.986v1.49h1.534v-1.619c.257-.049.484-.111.675-.19.53-.21.938-.518 1.23-.923.29-.402.435-.846.435-1.326Zm-3.277-2.948c.25-.086.436-.217.562-.39.125-.175.188-.378.188-.608 0-.238-.06-.441-.178-.61a.97.97 0 0 0-.516-.36c-.226-.072-.629-.108-1.207-.108h-.993v2.207h.993c.52 0 .902-.044 1.151-.13Z" fill="#FFB800"/></svg>
